public/assets/devlogo.svg

<svg width="128" height="64" viewBox="0 0 128 64" fill="none" xmlns="http://www.w3.org/2000/svg">
<g clip-path="url(#clip0)">
<path d="M0 0H5.63333C10.1667 0 13.3333 3.16667 13.3333 7.93333C13.3333 12.9667 10.2667 16 5.5 16H0V0ZM5.13333 13.8667C9 13.8667 10.9 11.8667 10.9 7.93333C10.9 4.36667 9 2.1 5.26667 2.1H2.26667V13.8667H5.13333Z" fill="white"/>
<path d="M16.9333 0H28.2334V2.1H19.2V6.66667H25.9V8.73333H19.2V13.8667H28.2334V15.9667H16.9333V0Z" fill="white"/>
<path d="M30.4667 0H33L36.2667 10.5333C36.6667 11.8 36.7667 12.7667 36.8333 14.1333H37.8C37.8333 12.9333 38 11.8667 38.4 10.5667L41.7 0H44.2L39 15.9667H35.6333L30.4667 0Z" fill="white"/>
<path d="M0 21.3667H6.5C9.83333 21.3667 11.8333 23.3667 11.8333 26.2334C11.8333 29.1334 9.83333 31.1334 6.46667 31.1334H2.26667V37.3334H0V21.3667ZM6.06667 29.1C8.26667 29.1 9.43333 27.8667 9.43333 26.2C9.43333 24.5334 8.3 23.4334 6.06667 23.4334H2.26667V29.1H6.06667Z" fill="white"/>
<path d="M14.7999 21.3667H21.6333C24.8666 21.3667 26.7999 23.2334 26.7999 25.7C26.7999 26.9334 26.3999 27.8334 25.5999 28.4C24.7999 28.9667 23.8333 29.2667 22.6666 29.3334V30.3C24.9666 30.3334 25.8333 31.1334 26.2999 33.3334L27.0666 37.3667H24.5666L23.8999 33.5667C23.5666 31.5334 22.5333 30.7667 20.3666 30.7667H17.0666V37.3334H14.7999V21.3667ZM21.2999 28.6667C23.1999 28.6667 24.3999 27.7667 24.3999 26.0334C24.3999 24.3 23.1999 23.4334 21.2999 23.4334H17.0999V28.6667H21.2999Z" fill="white"/>
<path d="M37.6667 21.0332C42.2 20.9665 45.7 24.4665 45.6334 29.3332C45.7 34.2332 42.2 37.6998 37.6667 37.6332C33.1334 37.6998 29.5667 34.1998 29.6334 29.3332C29.5667 24.4665 33.1667 20.9665 37.6667 21.0332ZM37.6667 23.0998C34.2 23.0998 32.1 25.7665 32.1 29.3332C32.1 32.9665 34.2 35.5665 37.6667 35.5665C41.1 35.5665 43.2334 32.9665 43.2334 29.3332C43.2334 25.7665 41.1 23.0998 37.6667 23.0998Z" fill="white"/>
<path d="M52.4333 23.4667H46.7999V21.3667H60.5666V23.4667H54.7333V37.3334H52.4666V23.4667H52.4333Z" fill="white"/>
<path d="M69.7 21.0332C74.2334 20.9665 77.7334 24.4665 77.6667 29.3332C77.7334 34.2332 74.2334 37.6998 69.7 37.6332C65.1667 37.6998 61.6 34.1998 61.6667 29.3332C61.6 24.4665 65.1667 20.9665 69.7 21.0332ZM69.6667 23.0998C66.2 23.0998 64.1 25.7665 64.1 29.3332C64.1 32.9665 66.2 35.5665 69.6667 35.5665C73.1 35.5665 75.2334 32.9665 75.2334 29.3332C75.2334 25.7665 73.1 23.0998 69.6667 23.0998Z" fill="white"/>
<path d="M88.1667 21.0332C92.0667 21.0332 94.5 23.3666 95.1667 25.7666L92.9 26.5999C92.6 25.6666 92.0667 24.8666 91.3333 24.1666C90.6 23.4666 89.5667 23.0999 88.1667 23.0999C84.9333 23.0999 82.7667 25.3999 82.7667 29.1666C82.7667 32.9999 84.9333 35.5332 88.1667 35.5332C90.9333 35.5332 92.2667 34.1332 93 31.9332L95.2 32.7666C94.4333 35.4999 91.9667 37.6332 88.1667 37.6332C83.3 37.6999 80.2667 33.8999 80.3334 29.1999C80.2667 24.5999 83.6334 20.9332 88.1667 21.0332Z" fill="white"/>
<path d="M105.433 21.0332C109.967 20.9665 113.467 24.4665 113.4 29.3332C113.467 34.2332 109.967 37.6998 105.433 37.6332C100.9 37.6998 97.3333 34.1998 97.4 29.3332C97.3333 24.4665 100.933 20.9665 105.433 21.0332ZM105.433 23.0998C101.967 23.0998 99.8666 25.7665 99.8666 29.3332C99.8666 32.9665 101.967 35.5665 105.433 35.5665C108.867 35.5665 111 32.9665 111 29.3332C111 25.7665 108.867 23.0998 105.433 23.0998Z" fill="white"/>
<path d="M117.1 21.3667H119.367V35.2H128V37.3334H117.1V21.3667Z" fill="white"/>
<path d="M5.33333 58.6665H0V63.9998H5.33333V58.6665Z" fill="#00D0FD"/>
<path d="M10.6667 58.6663V53.333H5.33337V58.6663V63.9997H10.6667V58.6663Z" fill="#5B8BF5"/>
<path d="M32 42.6665H26.6666V47.9998V53.3332H21.3333H16H10.6666V58.6665H16H21.3333H26.6666H32V53.3332V47.9998H37.3333H42.6666V42.6665H37.3333H32Z" fill="#FF3815"/>
<path d="M16 53.3332V47.9998V42.6665H10.6667H5.33337V47.9998V53.3332H10.6667H16Z" fill="#D500E6"/>
</g>
<defs>
<clipPath id="clip0">
<rect width="128" height="64" fill="white"/>
</clipPath>
</defs>
</svg>

<svg width="128" height="64" fill="none" xmlns="http://www.w3.org/2000/svg"><g clip-path="url(#a)"><path d="M0 0h5.633c4.534 0 7.7 3.167 7.7 7.933C13.333 12.967 10.267 16 5.5 16H0V0Zm5.133 13.867c3.867 0 5.767-2 5.767-5.934C10.9 4.367 9 2.1 5.267 2.1h-3v11.767h2.866ZM16.933 0h11.3v2.1H19.2v4.567h6.7v2.066h-6.7v5.134h9.033v2.1h-11.3V0Zm13.534 0H33l3.267 10.533c.4 1.267.5 2.234.566 3.6h.967c.033-1.2.2-2.266.6-3.566L41.7 0h2.5L39 15.967h-3.367L30.467 0ZM0 21.367h6.5c3.333 0 5.333 2 5.333 4.866 0 2.9-2 4.9-5.366 4.9h-4.2v6.2H0V21.367ZM6.067 29.1c2.2 0 3.366-1.233 3.366-2.9 0-1.667-1.133-2.767-3.366-2.767h-3.8V29.1h3.8Zm8.733-7.733h6.833c3.234 0 5.167 1.866 5.167 4.333 0 1.233-.4 2.133-1.2 2.7-.8.567-1.767.867-2.933.933v.967c2.3.033 3.166.833 3.633 3.033l.767 4.034h-2.5l-.667-3.8c-.333-2.034-1.367-2.8-3.533-2.8h-3.3v6.566H14.8V21.367Zm6.5 7.3c1.9 0 3.1-.9 3.1-2.634 0-1.733-1.2-2.6-3.1-2.6h-4.2v5.234h4.2Zm16.367-7.634c4.533-.067 8.033 3.433 7.966 8.3.067 4.9-3.433 8.367-7.966 8.3-4.534.067-8.1-3.433-8.034-8.3-.066-4.866 3.534-8.366 8.034-8.3Zm0 2.067c-3.467 0-5.567 2.666-5.567 6.233 0 3.634 2.1 6.233 5.567 6.233 3.433 0 5.566-2.6 5.566-6.233 0-3.566-2.133-6.233-5.566-6.233Zm14.766.367H46.8v-2.1h13.767v2.1h-5.834v13.866h-2.266V23.467h-.034ZM69.7 21.033c4.533-.067 8.033 3.433 7.967 8.3.066 4.9-3.434 8.367-7.967 8.3-4.533.067-8.1-3.433-8.033-8.3-.067-4.866 3.5-8.366 8.033-8.3Zm-.033 2.067c-3.467 0-5.567 2.666-5.567 6.233 0 3.634 2.1 6.233 5.567 6.233 3.433 0 5.566-2.6 5.566-6.233 0-3.566-2.133-6.233-5.566-6.233Zm18.5-2.067c3.9 0 6.333 2.334 7 4.734L92.9 26.6c-.3-.933-.833-1.733-1.567-2.433-.733-.7-1.766-1.067-3.166-1.067-3.234 0-5.4 2.3-5.4 6.067 0 3.833 2.166 6.366 5.4 6.366 2.766 0 4.1-1.4 4.833-3.6l2.2.834c-.767 2.733-3.233 4.866-7.033 4.866-4.867.067-7.9-3.733-7.834-8.433-.066-4.6 3.3-8.267 7.834-8.167Zm17.266 0c4.534-.067 8.034 3.433 7.967 8.3.067 4.9-3.433 8.367-7.967 8.3-4.533.067-8.1-3.433-8.033-8.3-.067-4.866 3.533-8.366 8.033-8.3Zm0 2.067c-3.466 0-5.566 2.666-5.566 6.233 0 3.634 2.1 6.233 5.566 6.233 3.434 0 5.567-2.6 5.567-6.233 0-3.566-2.133-6.233-5.567-6.233Zm11.667-1.733h2.267V35.2H128v2.133h-10.9V21.367Z" fill="#fff"/><path d="M5.333 58.666H0V64h5.333v-5.334Z" fill="#00D0FD"/><path d="M10.667 58.666v-5.333H5.333V64h5.334v-5.334Z" fill="#5B8BF5"/><path d="M32 42.666h-5.333v10.667h-16v5.334H32V48h10.667v-5.334H32Z" fill="#FF3815"/><path d="M16 53.333V42.666H5.333v10.667H16Z" fill="#D500E6"/></g><defs><clipPath id="a"><path fill="#fff" d="M0 0h128v64H0z"/></clipPath></defs></svg>
